X:54
T:The 19th Hole
R:reel
C:Paul S. Cranford
O:Cape Breton Island
S:http://www.cranfordpub.com
D:currently unrecorded
B:currently unpublished in book form
Z:psc
H:                                                        copyrights Cranford Publications, SOCAN
L:1/8
Q:300
M:C
K:F
c|f<ae>c d<fc>A|B>c d/c/B/A/ B<GG>e|f<cg>e f<cc>B|A>c G/A/B/G/ A<FF>e|
f<ae>c d<fc>A|B>c d/c/B/A/ B<GG>B|(3AFA (3BGB (3cAc d>f|(3edc (3dbg a<ff||
||c|A<FF>c A<FF>c|A>F d/c/B/A/ B<GG>B|A>FA<c B>dc>e|d>f e/f/g/e/ a<ff>g|
a<ff>g a<ff>g|a>f b/a/g/f/ e<cc>A|(3Bcd G>B (3ABc f>d|(3edc (3dbg a<ff|]
